src/pos-icons/skew-more.svg

<svg height="24" viewBox="0 0 24 24" width="24" xmlns="http://www.w3.org/2000/svg"><path d="m12.5 11-2.09 9h-4.91l2.09-9zm2.5-2h-9l-3 13h9zm6-3-4-4v3h-8v2h8v3z"/></svg>

<?xml version="1.0" encoding="UTF-8"?><!DOCTYPE svg PUBLIC "-//W3C//DTD SVG 1.1//EN" "http://www.w3.org/Graphics/SVG/1.1/DTD/svg11.dtd"><svg xmlns="http://www.w3.org/2000/svg" xmlns:xlink="http://www.w3.org/1999/xlink" version="1.1" id="mdi-skew-more" width="24" height="24" viewBox="0 0 24 24"><path d="M12.5,11L10.41,20H5.5L7.59,11H12.5M15,9H6L3,22H12L15,9M21,6L17,2V5H9V7H17V10L21,6Z" /></svg>
